!!!SOCIAL_FUNCTION:	songs used in the treatment of the sick
!!!PDT:	1929
!!!OTL: No_59_I_Came_from_the_East.krn
!!!REG: Southwest
!!!LANG: Non-Tone
!!!LING_GROUP: Uto-Aztecan
**kern
*staff1
=1-
*clefF4
*k[f#c#g#d#a#]
*M2/4
4G#\
4G#\
=2
4c#\
4c#\
=3||
*M3/4
2B\
4G#\
=4||
*M2/4
4F#\
4r
=5
4c#\
4c#\
=6
4c#\
4B\
=7
2G#\
=8
4.F#\
8D#\
=9
4G#\
8G#\L
8D#\J
=10||
*M3/4
4F#\
4F#\
4D#\
=11||
*M2/4
4C#/
4r
=12!|:
4.B\
8G#\
=13
4c#\
4c#\
=14
4.B\
8G#\
=15
4B\
4B\
=16
4.G#\
8F#\
=17
4G#\
8G#\L
8D#\J
=18||
*M3/4
4F#\
4F#\
4D#\
=19||
*M2/4
4C#/
4r
=20
8.G#\L
16G#\Jk
4G#\
=21
4F#\
8F#\L
8D#\J
=22||
*M3/4
2F#\
4F#\
=23
2.F#\
==:|!
*-
